cssgg/software-download.svg

<svg
  width="24"
  height="24"
  viewBox="0 0 24 24"
  fill="none"
  xmlns="http://www.w3.org/2000/svg"
>
  <path
    d="M11 5C11 4.44772 11.4477 4 12 4C12.5523 4 13 4.44772 13 5V12.1578L16.2428 8.91501L17.657 10.3292L12.0001 15.9861L6.34326 10.3292L7.75748 8.91501L11 12.1575V5Z"
    fill="currentColor"
  />
  <path
    d="M4 14H6V18H18V14H20V18C20 19.1046 19.1046 20 18 20H6C4.89543 20 4 19.1046 4 18V14Z"
    fill="currentColor"
  />
</svg>

<svg viewBox="0 0 24 24" xmlns="http://www.w3.org/2000/svg"><g><path d="M11 5c0-.56.44-1 1-1 .55 0 1 .44 1 1v7.15l3.24-3.25 1.41 1.41 -5.66 5.65 -5.66-5.66 1.41-1.42 3.24 3.24V4.96Z"/><path d="M4 14h2v4h12v-4h2v4c0 1.1-.9 2-2 2H6c-1.11 0-2-.9-2-2v-4Z"/></g></svg>
